X:1
T:Vedo ogni selva
T:Francesco Soriano
T:Source : Canzonette a la Romana a tre voci---Antwerp---P.Phalesius Jr---1607. Editor : André Vierendeels (02/02/17).
T:Notes : Original clefs :  G2, C2,  C4 Editorial accidentals above the staff m 14 in T voice, slightly adapted by the editor 
T:Vedo ogni selva
T:©
T:©
T:©
T:©
C:Francesco Soriano
Z:©
%%score [ 1 2 3 ]
L:1/8
Q:1/4=120
M:4/4
K:C
V:1 treble nm="Soprano 1" snm="S 1"
V:2 treble nm="Soprano 2" snm="S 2"
V:3 treble-8 nm="Tenor" snm="T"
V:1
 G4 A2 B2 | c4 d4 | e2 f2 g2 e2 | f2 ed cdec | d4 d2 B2 | c2 d2 G2 G2 | AGAB c3 B/A/ | Bcde c2 Ae | %8
w: Ve- d'o- gni|sel- va|re- ve- stir le|fron- * * * * * *|* di, et|o- gni pra- to|di fio- ret- ti'a- dor- * *|* * * * * no, et|
w: Qui- e- te|son di|Net- tun l'ac- que|ma- ri- * * * * *|* ne, spi-|ra- no so- le'i|piu be- nin- gni ven- * *|* * * * * ti, spi-|
 f2 g2 c2 c2 | edef g3 e/d/ | d3 e f2 ed | e8 |[M:2/4] d4 ::[M:4/4] z2 d3 c BA | G2 g2 gfed | %15
w: o- gni pra- to|di fio- ret- ti'a- dor- * *|||no,|spie- * * *|* g'A- pol- * * *|
w: ra- no so- le'i|piu be- ni- gni ven- * *|||ti,|sol _ _ _|_ que- * * * *|
 e2 e2 g2 c2- | c2 d2 d2 e2 | f4 e2 e2 | dcdB c2 Ad | BABG A2 Ag | edec d3 c/B/ | A4 B4 | %22
w: * lo'i suoi crin|_ au- ra- t'e|bion- di, e|rend' al- le- gro'e gra- to, e|rend' al- le- gro'e gra- to, e|rend- al- le- gro'e gra- * *|* t'o-|
w: sto'A- mor cru- del|_ non da mai|fi- ne, al|pian- to mie a- gra- vi, al|pian- to mie a- gra- vi, al|pian- to mie a- gra- * *|* vi|
 c2 c2 B3 A/G/ | A4 G2 B2 | edec d3 c/B/ | A4 B4 | c2 c2 B3 A/G/ | A4 G4- | G8 :| %29
w: gni con- tor- * *|* to, e|rend' al- le- gro'e gra- * *|* t'o-|gni con- tor- * *|* to.|_|
w: miei tor- men- * *|* ti, al|pian- to mie a- gra- * *|* vi|miei tor- men- * *|* to.|_|
V:2
 z8 | z2 G2 A2 B2 | c4 G4 | A2 B2 c3 A | B8 | A2 A2 B2 c2 | F2 F2 EDEF | G4 A2 c2 | _B4 A4 | %9
w: |Ve- d'o- gni|sel- va|re- ve- stir le|fron-|di, et o- gni|pra- to di fio- ret- ti'a-|dor- no, et|o- gni|
w: |Qui- e- te|son di|Net- tun l'ac- que|ma-|rin' spi- ra- no|so- le'i piu be- ni- gni|ven- ti, spi-|ra- no|
 G4 G4 | BABc d4 | ^c2 d4 c2 |[M:2/4] z4 ::[M:4/4] A3 G FE D2 | GFED C2 G2- | G2 G2 E4 | F4 G2 G2 | %17
w: pra- to|di fio- ret- ti'a- dor-|* * no,||spie- * * * g'A-|pol- * * * * lo'i|_ suoi crin|au- ra- t'e|
w: so- le'i|piu be- ni- gni ven-|* * ti,||sol _ _ _ _|que- * * * sto'A- mor|_ cru- del|non da mai|
 A4 G2 c2 | BABG A2 D2 | z2 G2 FEFD | E2 EA G^FGE | ^F6 G2 | G2 A4 G2- | G2 ^F2 G2 D2 | %24
w: bion- di, e|rend' al- le- gro'e gra- to|e rend' al- le- gro'e|gra- to, e rend' al- le- gro'e|gra- t'o-|gni con- tor-|* * to, e|
w: fi- ne, al|pian- to mie a- gra- vi,|al pian- to mie a-|gra- vi, al pian- to mie a-|gra- vi|miei tor- men-|* * ti, al|
 E2 EA G^FGE | ^F6 G2 | G2 A4 G2- | G2 ^F2 G4- | G8 :| %29
w: ren- de, e rend' al- le- gro'e|gra- t'o-|gni con- tor-|* * to.|_|
w: pian- to mie a- gra- vi mie-|i tor-|men- * *|* * ti.|_|
V:3
 z4 z2 g2 | f2 e2 d4 | c4 B2 c2 | F2 G2 A4 | G4 g4 | f4 e4 | d4 A4 | GABc F2 Fc | d2 e2 f4 | %9
w: Ve-|d'o- gni sel-|va re- ve-|stir le fron-|di, et|o- gni|pra- to|di fio- ret- ti'a- dor- no, et|o- gni pra-|
w: Qui-|e- te son|di Net- tun|l'ac- que ma-|rin, spi-|ra- no|so- le'i|piu be- ni- gni ven- ti, spi-|ra- no so-|
 c4 edef | g3 f/e/ d2 cB | A2 G2 A4 |[M:2/4] D4 ::[M:4/4] f3 e dc B2 | g2 gf ed c2- | %15
w: to di fio- ret- te'a-|dor- * * * * *||no,|spie- * * * *|g'A- pol- * * * *|
w: le'i piu be- ni- gni|ven- * * * * *||ti,|sol _ _ _ _|que- sto''A- * * * mor|
 c2 c2 c2 A2- | A2 _B2 B2 c2 |"^b" FGAB c4 | G2 g2 fefd | e4 d2 d2 | cBcA B3 c | d6 e2 | %22
w: * lo'i suoi crin|_ au- ra- ti'e|bion- * * * *|di, e rend' al- le- gro'e|gra- to, e|rend' al- le- gro'e gra- *|to o-|
w: _ cru- del non|_ _ da mai|fi- * * * *|ne, al pian- to mie a-|gra- vi, al|pian- to mie a- gra- *|* vi|
"^-natural" e2 f2 g3 f/e/ | d4 G4 | cBcA B3 c | d6 e2 | e2 f2 g3 f/e/ | d4 G4- | G8 :| %29
w: gni con tor- * *|* to'e|rend' al- le- gro'e gra- t'o-|gni con-|tor- * * * *|* to.|_|
w: miei tor- men- * *|ti, al|pian- to mie a- gra- vi|miei tor-|men- * * * *|* ti.|_|

